public/icons/icon/rotate-ccw.svg

<svg width="30" height="31" viewBox="0 0 30 31" fill="none" xmlns="http://www.w3.org/2000/svg">
<path d="M15.5968 7.18641C15.761 7.31413 16.0002 7.19711 16.0002 6.98907V4.99998C19.9629 5.00001 22.3696 5.72742 23.8211 7.17892C25.2726 8.63045 26 11.0372 26 15C26 15.5523 26.4477 16 27 16C27.5523 16 28 15.5523 28 15C28 10.8876 27.265 7.79439 25.2353 5.7647C23.2056 3.73506 20.1125 3.00001 16.0002 2.99998V1.01139C16.0002 0.803351 15.761 0.686328 15.5968 0.81405L11.754 3.80289C11.6253 3.90298 11.6253 4.09748 11.754 4.19757L15.5968 7.18641Z" fill="black"/>
<path fill-rule="evenodd" clip-rule="evenodd" d="M3.5 9.00002C2.67157 9.00002 2 9.67159 2 10.5V27.5C2 28.3284 2.67157 29 3.5 29H20.5C21.3284 29 22 28.3284 22 27.5V10.5C22 9.67159 21.3284 9.00002 20.5 9.00002H3.5ZM4 11V27H20V11H4Z" fill="black"/>
</svg>

<svg xmlns="http://www.w3.org/2000/svg" width="30" height="31" fill="none"><path fill="#000" d="M15.597 7.186A.25.25 0 0 0 16 6.99V5c3.963 0 6.37.727 7.821 2.179C25.273 8.63 26 11.037 26 15a1 1 0 1 0 2 0c0-4.112-.735-7.206-2.765-9.235C23.205 3.735 20.113 3 16 3V1.011a.25.25 0 0 0-.403-.197l-3.843 2.989a.25.25 0 0 0 0 .395l3.843 2.988Z"/><path fill="#000" fill-rule="evenodd" d="M3.5 9A1.5 1.5 0 0 0 2 10.5v17A1.5 1.5 0 0 0 3.5 29h17a1.5 1.5 0 0 0 1.5-1.5v-17A1.5 1.5 0 0 0 20.5 9h-17Zm.5 2v16h16V11H4Z" clip-rule="evenodd"/></svg>
